Desktop/project_createx/public/images/Contacts/outline.svg

<svg width="40" height="40" viewBox="0 0 40 40" fill="none" xmlns="http://www.w3.org/2000/svg">
<path fill-rule="evenodd" clip-rule="evenodd" d="M19.9987 12.9163C18.1577 12.9163 16.6654 14.4087 16.6654 16.2497C16.6654 18.0906 18.1577 19.583 19.9987 19.583C21.8396 19.583 23.332 18.0906 23.332 16.2497C23.332 14.4087 21.8396 12.9163 19.9987 12.9163ZM13.332 16.2497C13.332 12.5678 16.3168 9.58301 19.9987 9.58301C23.6806 9.58301 26.6654 12.5678 26.6654 16.2497C26.6654 19.9316 23.6806 22.9163 19.9987 22.9163C16.3168 22.9163 13.332 19.9316 13.332 16.2497Z" fill="#7772F1"/>
<path fill-rule="evenodd" clip-rule="evenodd" d="M19.9987 5.41634C13.9661 5.41634 9.16536 10.1431 9.16536 15.8651C9.16536 20.5297 11.9687 25.2411 15.0331 28.9467C16.5374 30.7659 18.0461 32.2728 19.1795 33.3249C19.4827 33.6063 19.7582 33.8545 19.9987 34.0667C20.2392 33.8545 20.5147 33.6063 20.8179 33.3249C21.9513 32.2728 23.46 30.7659 24.9643 28.9467C28.0287 25.2411 30.832 20.5297 30.832 15.8651C30.832 10.1431 26.0313 5.41634 19.9987 5.41634ZM19.9987 36.2497C18.9673 37.5589 18.9669 37.5586 18.9665 37.5583L18.9624 37.555L18.9529 37.5475L18.9206 37.5217C18.8932 37.4998 18.8543 37.4684 18.8047 37.4279C18.7054 37.3469 18.563 37.2292 18.3837 37.0771C18.0251 36.773 17.5179 36.3307 16.9117 35.7679C15.7013 34.6443 14.085 33.0308 12.4643 31.071C9.27868 27.2187 5.83203 21.7377 5.83203 15.8651C5.83203 8.20473 12.2241 2.08301 19.9987 2.08301C27.7733 2.08301 34.1654 8.20473 34.1654 15.8651C34.1654 21.7377 30.7187 27.2187 27.5331 31.071C25.9124 33.0308 24.2961 34.6443 23.0857 35.7679C22.4795 36.3307 21.9723 36.773 21.6137 37.0771C21.4344 37.2292 21.292 37.3469 21.1927 37.4279C21.1431 37.4684 21.1042 37.4998 21.0768 37.5217L21.0445 37.5475L21.035 37.555L21.032 37.5574C21.0316 37.5577 21.0301 37.5589 19.9987 36.2497ZM19.9987 36.2497L21.0301 37.5589C20.4251 38.0355 19.5715 38.0349 18.9665 37.5583L19.9987 36.2497Z" fill="#7772F1"/>
</svg>

<svg xmlns="http://www.w3.org/2000/svg" width="40" height="40" fill="none"><path fill="#7772F1" fill-rule="evenodd" d="M19.999 12.916a3.333 3.333 0 1 0 0 6.667 3.333 3.333 0 0 0 0-6.667m-6.667 3.334a6.667 6.667 0 1 1 13.333 0 6.667 6.667 0 0 1-13.333 0" clip-rule="evenodd"/><path fill="#7772F1" fill-rule="evenodd" d="M19.999 5.416c-6.033 0-10.834 4.727-10.834 10.45 0 4.664 2.804 9.375 5.868 13.08A46.5 46.5 0 0 0 20 34.067a46.516 46.516 0 0 0 4.966-5.12c3.064-3.705 5.867-8.416 5.867-13.08 0-5.723-4.8-10.45-10.833-10.45m0 30.834a270 270 0 0 1-1.032 1.308l-.005-.003-.01-.008-.031-.025-.116-.094a44.16 44.16 0 0 1-1.893-1.66 50 50 0 0 1-4.448-4.697c-3.185-3.852-6.632-9.333-6.632-15.206 0-7.66 6.392-13.782 14.167-13.782s14.166 6.122 14.166 13.782c0 5.873-3.446 11.354-6.632 15.206a50 50 0 0 1-5.92 6.006 29 29 0 0 1-.536.445l-.033.026-.009.007-.003.002s-.002.002-1.033-1.307m0 0 1.031 1.309a1.67 1.67 0 0 1-2.064 0z" clip-rule="evenodd"/></svg>
